krita/pics/svg/light_current-layer.svg

<?xml version="1.0" encoding="UTF-8"?>
<svg width="16" height="16" version="1.1" viewBox="0 0 16 16" xmlns="http://www.w3.org/2000/svg">
 <g transform="matrix(1.1485,0,0,1.2471,-1.2331,-1.9166)" fill="#d2d2d2" stroke-width=".82858px">
  <path d="m8.0401 10.471-5.1021-2.5184 2.085-1.0291-0.93217-0.46015-3.0171 1.4893 6.9665 3.4371 6.9648-3.4371-3.0171-1.4893-0.93046 0.46015 2.085 1.0291z" color="#000000" style="-inkscape-stroke:none"/>
  <path d="m8.0401 13.448-5.1021-2.5184 2.085-1.0291-0.93217-0.46015-3.0171 1.4893 6.9665 3.4371 6.9648-3.4371-3.0171-1.4893-0.93046 0.46015 2.085 1.0291z" color="#000000" fill-opacity=".4" style="-inkscape-stroke:none"/>
  <path d="m8.0401 1.5368-6.9665 3.4371 6.9665 3.4371 6.9648-3.4371zm0 0.91874 5.1021 2.5184-5.1021 2.5184-5.1021-2.5184z" color="#000000" fill-opacity=".4" style="-inkscape-stroke:none"/>
 </g>
</svg>

<svg width="16" height="16" viewBox="0 0 16 16" xmlns="http://www.w3.org/2000/svg"><g fill="#d2d2d2" stroke-width=".82858px" color="#000"><path d="M8.04 10.471 2.938 7.953l2.085-1.03-.932-.46-3.017 1.49L8.04 11.39l6.965-3.437-3.017-1.49-.93.46 2.084 1.03z" style="-inkscape-stroke:none" transform="matrix(1.1485 0 0 1.2471 -1.233 -1.917)"/><path d="M8.04 13.448 2.938 10.93 5.023 9.9l-.932-.46-3.017 1.49 6.966 3.437 6.965-3.437-3.017-1.49-.93.46 2.084 1.03z" fill-opacity=".4" style="-inkscape-stroke:none" transform="matrix(1.1485 0 0 1.2471 -1.233 -1.917)"/><path d="M8.04 1.537 1.074 4.974 8.04 8.41l6.965-3.437zm0 .919 5.102 2.518L8.04 7.492 2.938 4.974z" fill-opacity=".4" style="-inkscape-stroke:none" transform="matrix(1.1485 0 0 1.2471 -1.233 -1.917)"/></g></svg>
